packages/foundations/assets/icons/functional/images/security/lock_open_16_filled.svg

<svg width="16" height="16" viewBox="0 0 16 16" fill="none" xmlns="http://www.w3.org/2000/svg">
<g clip-path="url(#clip0_2214_5835)">
<path fill-rule="evenodd" clip-rule="evenodd" d="M7.99995 1.60001C9.54925 1.60001 10.8678 2.70861 11.1461 4.21563C11.2264 4.65011 10.9392 5.06738 10.5048 5.14763C10.1013 5.22214 9.7127 4.97986 9.595 4.597L9.57276 4.50623C9.43395 3.75464 8.77427 3.20001 7.99995 3.20001C7.15673 3.20001 6.46591 3.8525 6.40485 4.68013L6.40046 4.7995V6.41374H11.2C12.0836 6.41374 12.8 7.13008 12.8 8.01374V12.8C12.8 13.6837 12.0836 14.4 11.2 14.4H4.79995C3.9163 14.4 3.19995 13.6837 3.19995 12.8V8.01374C3.19995 7.13008 3.9163 6.41374 4.79995 6.41374L4.80046 4.7995C4.80046 3.03247 6.23292 1.60001 7.99995 1.60001ZM7.99995 8.80001C7.58968 8.80001 7.25155 9.10884 7.20533 9.50671L7.19995 9.60001V11.1961L7.20533 11.2894C7.25155 11.6873 7.58968 11.9961 7.99995 11.9961C8.41022 11.9961 8.74836 11.6873 8.79457 11.2894L8.79995 11.1961V9.60001L8.79457 9.50671C8.74836 9.10884 8.41022 8.80001 7.99995 8.80001Z" fill="#1A1C1F"/>
</g>
<defs>
<clipPath id="clip0_2214_5835">
<rect width="16" height="16" fill="white"/>
</clipPath>
</defs>
</svg>

<svg xmlns="http://www.w3.org/2000/svg" width="16" height="16" fill="none"><g clip-path="url(#a)"><path fill="#1A1C1F" fill-rule="evenodd" d="M8 1.6a3.2 3.2 0 0 1 3.146 2.616.8.8 0 0 1-1.551.381l-.022-.09a1.6 1.6 0 0 0-3.168.173L6.4 4.8v1.614h4.8a1.6 1.6 0 0 1 1.6 1.6V12.8a1.6 1.6 0 0 1-1.6 1.6H4.8a1.6 1.6 0 0 1-1.6-1.6V8.014a1.6 1.6 0 0 1 1.6-1.6V4.799A3.2 3.2 0 0 1 8 1.6m0 7.2a.8.8 0 0 0-.795.707L7.2 9.6v1.596l.005.093a.8.8 0 0 0 1.59 0l.005-.093V9.6l-.005-.093A.8.8 0 0 0 8 8.8" clip-rule="evenodd"/></g><defs><clipPath id="a"><path fill="#fff" d="M0 0h16v16H0z"/></clipPath></defs></svg>
